icons/archive-filled.svg

<svg xmlns="http://www.w3.org/2000/svg" width="24" height="24" viewBox="0 0 24 24">
    <path fill="#3A3A47" fill-rule="evenodd" d="M21 7.996v11.987c0 1.307-.667 1.973-2 1.998-1.333.025-6 .025-14 0-1.333 0-2-.666-2-1.998V7.996h18zm-6 1.997H9c-.667 0-1 .333-1 .999 0 .666.333.999 1 .999h6c.667 0 1-.333 1-1 0-.665-.333-.998-1-.998zM20 2c1.333 0 2 .666 2 1.998v2H2v-2C2 2.666 2.68 2 4.038 2H20z"/>
</svg>

<svg width="24" height="24" viewBox="0 0 24 24" fill="none" xmlns="http://www.w3.org/2000/svg">
<path fill-rule="evenodd" clip-rule="evenodd" d="M3 7.996H21V19.983C21 21.29 20.333 21.956 19 21.981C17.667 22.006 13 22.006 5 21.981C3.667 21.981 3 21.315 3 19.983V7.996ZM22 5.998H2V3.998C2 2.666 2.68 2 4.038 2H20C21.333 2 22 2.666 22 3.998V5.998ZM9 9.993C8.333 9.993 8 10.326 8 10.992C8 11.658 8.333 11.991 9 11.991H15C15.667 11.991 16 11.658 16 10.991C16 10.326 15.667 9.993 15 9.993H9Z" fill="#3A3A47"/>
</svg>
